X: 1242
T: the Bush in Bloom  #2
R: reel
%S: s:2 b:14(7+7)
B: O'Neill's 1850 #1242
O: McFadden
Z: Trish O'Neil
N: Compacted via repeats and multiple endings [JC]
M: C|
L: 1/8
K: G
"^A"[|]ge !segno!\
|: d2(BG) AGEF | G2(Bd) e(f{a}g)e |\
[1 d2(BG) AGEd | eaag (fd)(e^c) :|\
[2 d2(BG) AGEF | GBAF HG2 "^B"|] (ef) | g2(fg) Bgdg |
|  g2(bg) agef |  g2(dg) Bgdg | egfa g2(ga) \
|| b>g (3.g.g.g agef | gage dega \
|  bgaf gfed | edef gag!segno!e |]
